packages/ui-icons/svg/Solid/zoom-in.svg

<svg viewBox="0 0 1920 1920" version="1.1" xmlns="http://www.w3.org/2000/svg">
    <path d="M1920,1766.67759 L1551.8744,1398.44355 C1666.16141,1251.62704 1734.9071,1067.61846 1734.9071,867.453549 C1734.9071,389.161349 1345.74575,0 867.453549,0 C389.161349,0 0,389.161349 0,867.453549 C0,1345.74575 389.161349,1734.9071 867.453549,1734.9071 C1067.61846,1734.9071 1251.51861,1666.05297 1398.44355,1551.8744 L1766.67759,1920 L1920,1766.67759 Z M867.453549,1518.04371 C508.653075,1518.04371 216.863387,1226.25402 216.863387,867.453549 C216.863387,508.653075 508.653075,216.863387 867.453549,216.863387 C1226.25402,216.863387 1518.04371,508.653075 1518.04371,867.453549 C1518.04371,1226.25402 1226.25402,1518.04371 867.453549,1518.04371 L867.453549,1518.04371 Z M975.885243,487.942622 L759.021856,487.942622 L759.021856,759.021856 L487.942622,759.021856 L487.942622,975.885243 L759.021856,975.885243 L759.021856,1246.96448 L975.885243,1246.96448 L975.885243,975.885243 L1246.96448,975.885243 L1246.96448,759.021856 L975.885243,759.021856 L975.885243,487.942622 Z" stroke="none" stroke-width="1" fill-rule="evenodd"/>
</svg>

<svg viewBox="0 0 1920 1920" version="1.1" xmlns="http://www.w3.org/2000/svg">
    <path d="M1920 1766.678l-368.126-368.234c114.287-146.817 183.033-330.826 183.033-530.99C1734.907 389.16 1345.746 0 867.454 0 389.16 0 0 389.161 0 867.454c0 478.292 389.161 867.453 867.454 867.453 200.164 0 384.065-68.854 530.99-183.033L1766.678 1920 1920 1766.678zM867.454 1518.044c-358.8 0-650.59-291.79-650.59-650.59s291.79-650.59 650.59-650.59 650.59 291.79 650.59 650.59-291.79 650.59-650.59 650.59zM975.885 487.943H759.022v271.079h-271.08v216.863h271.08v271.08h216.863v-271.08h271.08V759.022h-271.08v-271.08z" stroke="none" stroke-width="1" fill-rule="evenodd"/>
</svg>
